X:1
T:Fulko Aankhama
C:Traditional (Nepali)
M:4/4
L:1/8
Q:1/4=100
K:C
% Intro — "1st Part Music" (repeat 4x)
|: c2 A2 G2 z2 | E2 C2 D2 z2 :|
% "Music End" (repeat 2x)
|: E2 D E C2 z2 | A,2 C,2 C,2 z2 :|
% Verse — "1st part song" (repeat 2x)
|: C2 C A, C2 D2 | E2 z2 z2 z2 | D2 E2 F2 E2 | D2 z2 z2 z2 |
 D2 z2 C2 C A, | C2 D2 E2 D C | D2 D C D E D C | C2 z2 z2 z2 :|
% Verse 2
G2 G2 E2 G2 | A2 z2 A2 G2 | G2 A G F2 E2 | D2 z2 z2 z2 |
D2 z2 C2 C A, | C2 D2 E2 D C | D2 D C D E D C | C2 z2 z2 z2 |]
